source/img/icon-mail.svg

<svg version="1.1" id="Layer_1" xmlns="http://www.w3.org/2000/svg" xmlns:xlink="http://www.w3.org/1999/xlink" x="0px" y="0px" width="17.988px" height="13.966px" viewBox="0 0 17.988 13.966" enable-background="new 0 0 17.988 13.966" xml:space="preserve">
  <g>
    <g>
      <g>
        <path fill="#FFFFFF" d="M14.914,1.814C16.111,0.816,15.816,0,14.257,0H3.731c-1.56,0-1.854,0.816-0.657,1.814l3.742,3.118 c1.197,0.998,3.158,0.998,4.355,0L14.914,1.814z"/>
      </g>
      <g>
        <path fill="#FFFFFF" d="M11.913,7.044C10.715,8.042,9.718,8.869,9.695,8.88c0,0,0,0-0.02,0.013 C9.601,8.949,9.523,8.995,9.44,9.029C9.407,9.044,9.374,9.063,9.34,9.077c-0.11,0.034-0.223,0.058-0.335,0.059 c-0.003,0-0.007,0.001-0.01,0.001c0,0,0,0-0.001,0s-0.001,0-0.001,0c-0.003,0-0.007-0.001-0.01-0.001 C8.87,9.134,8.759,9.111,8.648,9.077C8.614,9.063,8.58,9.044,8.548,9.029c-0.083-0.034-0.16-0.08-0.235-0.136C8.293,8.88,8.293,8.88,8.293,8.88c-0.022-0.012-1.02-0.838-2.218-1.836L2.178,3.796C0.979,2.798,0,3.257,0,4.816v6.315 c0,1.56,1.275,2.835,2.835,2.835h12.318c1.56,0,2.835-1.275,2.835-2.835V4.816c0-1.559-0.979-2.018-2.178-1.02L11.913,7.044z"/>
      </g>
    </g>
  </g>
</svg>

<svg id="Layer_1" data-name="Layer 1" xmlns="http://www.w3.org/2000/svg" width="17.99" height="13.97" viewBox="0 0 17.99 13.97"><defs><style>.cls-1{fill:#d22856;}</style></defs><title>icon-mail</title><path class="cls-1" d="M14.91,1.81c1.2-1,.9-1.81-.66-1.81H3.73C2.17,0,1.88.82,3.07,1.81L6.82,4.93a3.54,3.54,0,0,0,4.35,0Z" transform="translate(0 0)"/><path class="cls-1" d="M11.91,7,9.7,8.88h0A1,1,0,0,1,9.44,9l-.1,0A1.13,1.13,0,0,1,9,9.14H9a1.2,1.2,0,0,1-.33-.06l-.1,0a1.05,1.05,0,0,1-.23-.14h0L6.08,7,2.18,3.8C1,2.8,0,3.26,0,4.82v6.32A2.84,2.84,0,0,0,2.83,14H15.15A2.84,2.84,0,0,0,18,11.13V4.82c0-1.56-1-2-2.18-1Z" transform="translate(0 0)"/></svg>
